X:1
T:[ID 3-2]
T:[ID 3-2]
T:Bezeichnung standardisiert: Menuet [mit Trio] Men\"uet Con Trio
T:Urheber unbekannt Datum in der hier transkribierten schriftlichen Quelle: 1767
C:Urheber unbekannt
C:Datum in der hier transkribierten schriftlichen Quelle: 1767
L:1/8
M:3/4
K:D
V:1 treble 
V:1
 D2 D2 (3FED | A2 A2 (3cBA | d2 DFEG |{G} F4 E2 | FA d2 f2 | fe e4 | BdcBA^G | A6 :: A2 A2 (3cBA | %9
 e2 e2 (3cBA | A2 aggf | f2 e2 (3cBA | Aaaggf | f2 e2 f2 | gbagfe | fedc d2 | (3BAG F2 E2 | D6 :| %18
"^Trio" !fermata!f2 f2 e2 | dc c2 d2 | ef d2 c2 | d2 A4 | B2 (3gfe (3dcB | A2 (3dcB A2 | G2 G2 F2 | %25
{F} E6 :: e2 e2 d2 | dc c4 | Bc d2 c2 | c2 B4 | (3Bcd d2 c2 | (3cde e2 d2 | (3fed c2 B2 | A6 | %34
!p! g2 g2 f2 | fe e4 | G2 G2 F2 | F2 E4 |!f! fagfed | c2 BA d2 | egfedc | d6!D.C.! :| %42

